X: 284
T: The Pearl of the Flowing Tresses
B: O'Neill's 284
N: "Rather slow"
N: "Collected by F.O'Neill"
Z: 1997 by John Chambers <jc@trillian.mit.edu>
M: 3/4
L: 1/8
K:Gm
D2 \
| G2 G2 (G>A) | G4 fd | c2 A2 A>G | F4 GA \
| B2 B2 A>G | ^F2 G2 c>A | A2 G2 G2 | G4 ||
|| d2 | g2 g2 g2 | a4 g2 | (gf) (dc) (d=e) | f4 Hg/f/d/>c/ \
| | B2 B2 A>G | ^F2 G2 (c>A) | A2 G2 G2 | G4 ||


